01-Reading_the_signal/decoded_signal.svg

<svg width="3231" height="647" xmlns="http://www.w3.org/2000/svg" xmlns:xlink="http://www.w3.org/1999/xlink" xml:space="preserve" overflow="hidden"><defs><clipPath id="clip0"><rect x="5090" y="105" width="3231" height="647"/></clipPath><clipPath id="clip1"><rect x="5140" y="155" width="3134" height="550"/></clipPath><clipPath id="clip2"><rect x="62" y="146" width="13229" height="52"/></clipPath><clipPath id="clip3"><rect x="62" y="146" width="13229" height="52"/></clipPath></defs><g clip-path="url(#clip0)" transform="translate(-5090 -105)"><rect x="5090" y="105" width="3231" height="647" fill="#FFFFFF"/><g><path d="M5181.17 155 5181.17 702M5221.17 155 5221.17 702M5261.17 155 5261.17 702M5302.17 155 5302.17 702M5342.18 155 5342.18 702M5383.18 155 5383.18 702M5423.18 155 5423.18 702M5463.18 155 5463.18 702M5504.18 155 5504.18 702M5544.18 155 5544.18 702M5585.18 155 5585.18 702M5625.18 155 5625.18 702M5665.19 155 5665.19 702M5706.19 155 5706.19 702M5746.19 155 5746.19 702M5786.19 155 5786.19 702M5827.19 155 5827.19 702M5867.19 155 5867.19 702M5908.19 155 5908.19 702M5948.2 155 5948.2 702M5988.2 155 5988.2 702M6029.2 155 6029.2 702M6069.2 155 6069.2 702M6110.2 155 6110.2 702M6150.2 155 6150.2 702M6190.2 155 6190.2 702M6231.2 155 6231.2 702M6271.21 155 6271.21 702M6312.21 155 6312.21 702M6352.21 155 6352.21 702M6392.21 155 6392.21 702M6433.21 155 6433.21 702M6473.21 155 6473.21 702M6514.21 155 6514.21 702M6554.21 155 6554.21 702M6594.22 155 6594.22 702M6635.22 155 6635.22 702M6675.22 155 6675.22 702M6715.22 155 6715.22 702M6756.22 155 6756.22 702M6796.22 155 6796.22 702M6837.22 155 6837.22 702M6877.23 155 6877.23 702M6917.23 155 6917.23 702M6958.23 155 6958.23 702M6998.23 155 6998.23 702M7039.23 155 7039.23 702M7079.23 155 7079.23 702M7119.23 155 7119.23 702M7160.23 155 7160.23 702M7200.24 155 7200.24 702M7241.24 155 7241.24 702M7281.24 155 7281.24 702M7321.24 155 7321.24 702M7362.24 155 7362.24 702M7402.24 155 7402.24 702M7443.24 155 7443.24 702M7483.25 155 7483.25 702M7523.25 155 7523.25 702M7564.25 155 7564.25 702M7604.25 155 7604.25 702M7644.25 155 7644.25 702M7685.25 155 7685.25 702M7725.25 155 7725.25 702M7766.25 155 7766.25 702M7806.26 155 7806.26 702M7846.26 155 7846.26 702M7887.26 155 7887.26 702M7927.26 155 7927.26 702M7968.26 155 7968.26 702M8008.26 155 8008.26 702M8048.26 155 8048.26 702M8089.27 155 8089.27 702M8129.27 155 8129.27 702M8170.27 155 8170.27 702M8210.27 155 8210.27 702M8251 155 8251 702" stroke="#FFFFFF" stroke-width="40.1042" stroke-linejoin="round" stroke-miterlimit="10" fill="none"/></g><g><path d="M5140 155 5140 702M5221.17 155 5221.17 702M5302.17 155 5302.17 702M5383.18 155 5383.18 702M5463.18 155 5463.18 702M5544.18 155 5544.18 702M5625.18 155 5625.18 702M5706.19 155 5706.19 702M5787.19 155 5787.19 702M5867.19 155 5867.19 702M5948.2 155 5948.2 702M6029.2 155 6029.2 702M6110.2 155 6110.2 702M6190.2 155 6190.2 702M6271.21 155 6271.21 702M6352.21 155 6352.21 702M6433.21 155 6433.21 702M6514.21 155 6514.21 702M6594.22 155 6594.22 702M6675.22 155 6675.22 702M6756.22 155 6756.22 702M6837.22 155 6837.22 702M6917.23 155 6917.23 702M6998.23 155 6998.23 702M7079.23 155 7079.23 702M7160.23 155 7160.23 702M7241.24 155 7241.24 702M7321.24 155 7321.24 702M7402.24 155 7402.24 702M7483.25 155 7483.25 702M7564.25 155 7564.25 702M7645.25 155 7645.25 702M7725.25 155 7725.25 702M7806.26 155 7806.26 702M7887.26 155 7887.26 702M7968.26 155 7968.26 702M8048.26 155 8048.26 702M8129.27 155 8129.27 702M8210 155 8210 702" stroke="#FFD1E4" stroke-width="40.1042" stroke-linejoin="round" stroke-miterlimit="10" fill="none"/></g><g clip-path="url(#clip1)"><path d="M5120.5 209.5 5120.5 537.5 5705.69 537.5 5705.69 209.5 5766.69 209.5 5766.69 537.5 5786.69 537.5 5786.69 209.5 5847.69 209.5 5847.69 537.5 5867.69 537.5 5867.69 209.5 5927.69 209.5 5927.69 537.5 5948.7 537.5 5948.7 209.5 5968.7 209.5 5968.7 537.5 6028.7 537.5 6028.7 209.5 6049.7 209.5 6049.7 537.5 6109.7 537.5 6109.7 209.5 6129.7 209.5 6129.7 537.5 6190.7 537.5 6190.7 209.5 6250.71 209.5 6250.71 537.5 6271.71 537.5 6271.71 209.5 6291.71 209.5 6291.71 537.5 6351.71 537.5 6351.71 209.5 6372.71 209.5 6372.71 537.5 6432.71 537.5 6432.71 209.5 6493.71 209.5 6493.71 537.5 6513.71 537.5 6513.71 209.5 6533.71 209.5 6533.71 537.5 6594.72 537.5 6594.72 209.5 6654.72 209.5 6654.72 537.5 6675.72 537.5 6675.72 209.5 6695.72 209.5 6695.72 537.5 6755.72 537.5 6755.72 209.5 6816.72 209.5 6816.72 537.5 6836.72 537.5 6836.72 209.5 6856.73 209.5 6856.73 537.5 6917.73 537.5 6917.73 209.5 6937.73 209.5 6937.73 537.5 6998.73 537.5 6998.73 209.5 7018.73 209.5 7018.73 537.5 7079.73 537.5 7079.73 209.5 7099.73 209.5 7099.73 537.5 7159.74 537.5 7159.74 209.5 7179.74 209.5 7179.74 537.5 7240.74 537.5 7240.74 209.5 7260.74 209.5 7260.74 537.5 7321.74 537.5 7321.74 209.5 7341.74 209.5 7341.74 537.5 7402.74 537.5 7402.74 209.5 7422.74 209.5 7422.74 537.5 7482.75 537.5 7482.75 209.5 7503.75 209.5 7503.75 537.5 7563.75 537.5 7563.75 209.5 7624.75 209.5 7624.75 537.5 7644.75 537.5 7644.75 209.5 7664.75 209.5 7664.75 537.5 8250.77 537.5 8250.77 209.5 8311.5 209.5 8311.5 537.5" stroke="#4E95D9" stroke-width="3.4375" stroke-linecap="round" stroke-linejoin="round" stroke-miterlimit="10" fill="none"/></g><g><path d="M5140.5 592.5 5140.5 674.5 5160.67 674.5 5160.67 592.5 5180.67 592.5 5180.67 674.5 5200.67 674.5 5200.67 592.5 5221.67 592.5 5221.67 674.5 5241.67 674.5 5241.67 592.5 5261.67 592.5 5261.67 674.5 5281.67 674.5 5281.67 592.5 5301.67 592.5 5301.67 674.5 5322.67 674.5 5322.67 592.5 5342.68 592.5 5342.68 674.5 5362.68 674.5 5362.68 592.5 5382.68 592.5 5382.68 674.5 5402.68 674.5 5402.68 592.5 5422.68 592.5 5422.68 674.5 5443.68 674.5 5443.68 592.5 5463.68 592.5 5463.68 674.5 5483.68 674.5 5483.68 592.5 5503.68 592.5 5503.68 674.5 5523.68 674.5 5523.68 592.5 5544.68 592.5 5544.68 674.5 5564.68 674.5 5564.68 592.5 5584.68 592.5 5584.68 674.5 5604.68 674.5 5604.68 592.5 5624.68 592.5 5624.68 674.5 5645.69 674.5 5645.69 592.5 5665.69 592.5 5665.69 674.5 5685.69 674.5 5685.69 592.5 5705.69 592.5 5705.69 674.5 5725.69 674.5 5725.69 592.5 5746.69 592.5 5746.69 674.5 5766.69 674.5 5766.69 592.5 5786.69 592.5 5786.69 674.5 5806.69 674.5 5806.69 592.5 5826.69 592.5 5826.69 674.5 5847.69 674.5 5847.69 592.5 5867.69 592.5 5867.69 674.5 5887.69 674.5 5887.69 592.5 5907.69 592.5 5907.69 674.5 5927.69 674.5 5927.69 592.5 5948.7 592.5 5948.7 674.5 5968.7 674.5 5968.7 592.5 5988.7 592.5 5988.7 674.5 6008.7 674.5 6008.7 592.5 6028.7 592.5 6028.7 674.5 6049.7 674.5 6049.7 592.5 6069.7 592.5 6069.7 674.5 6089.7 674.5 6089.7 592.5 6109.7 592.5 6109.7 674.5 6129.7 674.5 6129.7 592.5 6150.7 592.5 6150.7 674.5 6170.7 674.5 6170.7 592.5 6190.7 592.5 6190.7 674.5 6210.7 674.5 6210.7 592.5 6230.7 592.5 6230.7 674.5 6250.71 674.5 6250.71 592.5 6271.71 592.5 6271.71 674.5 6291.71 674.5 6291.71 592.5 6311.71 592.5 6311.71 674.5 6331.71 674.5 6331.71 592.5 6351.71 592.5 6351.71 674.5 6372.71 674.5 6372.71 592.5 6392.71 592.5 6392.71 674.5 6412.71 674.5 6412.71 592.5 6432.71 592.5 6432.71 674.5 6452.71 674.5 6452.71 592.5 6473.71 592.5 6473.71 674.5 6493.71 674.5 6493.71 592.5 6513.71 592.5 6513.71 674.5 6533.71 674.5 6533.71 592.5 6553.72 592.5 6553.72 674.5 6574.72 674.5 6574.72 592.5 6594.72 592.5 6594.72 674.5 6614.72 674.5 6614.72 592.5 6634.72 592.5 6634.72 674.5 6654.72 674.5 6654.72 592.5 6675.72 592.5 6675.72 674.5 6695.72 674.5 6695.72 592.5 6715.72 592.5 6715.72 674.5 6735.72 674.5 6735.72 592.5 6755.72 592.5 6755.72 674.5 6776.72 674.5 6776.72 592.5 6796.72 592.5 6796.72 674.5 6816.72 674.5 6816.72 592.5 6836.72 592.5 6836.72 674.5 6856.73 674.5 6856.73 592.5 6877.73 592.5 6877.73 674.5 6897.73 674.5 6897.73 592.5 6917.73 592.5 6917.73 674.5 6937.73 674.5 6937.73 592.5 6957.73 592.5 6957.73 674.5 6978.73 674.5 6978.73 592.5 6998.73 592.5 6998.73 674.5 7018.73 674.5 7018.73 592.5 7038.73 592.5 7038.73 674.5 7058.73 674.5 7058.73 592.5 7079.73 592.5 7079.73 674.5 7099.73 674.5 7099.73 592.5 7119.73 592.5 7119.73 674.5 7139.73 674.5 7139.73 592.5 7159.74 592.5 7159.74 674.5 7179.74 674.5 7179.74 592.5 7200.74 592.5 7200.74 674.5 7220.74 674.5 7220.74 592.5 7240.74 592.5 7240.74 674.5 7260.74 674.5 7260.74 592.5 7280.74 592.5 7280.74 674.5 7301.74 674.5 7301.74 592.5 7321.74 592.5 7321.74 674.5 7341.74 674.5 7341.74 592.5 7361.74 592.5 7361.74 674.5 7381.74 674.5 7381.74 592.5 7402.74 592.5 7402.74 674.5 7422.74 674.5 7422.74 592.5 7442.74 592.5 7442.74 674.5 7462.75 674.5 7462.75 592.5 7482.75 592.5 7482.75 674.5 7503.75 674.5 7503.75 592.5 7523.75 592.5 7523.75 674.5 7543.75 674.5 7543.75 592.5 7563.75 592.5 7563.75 674.5 7583.75 674.5 7583.75 592.5 7604.75 592.5 7604.75 674.5 7624.75 674.5 7624.75 592.5 7644.75 592.5 7644.75 674.5 7664.75 674.5 7664.75 592.5 7684.75 592.5 7684.75 674.5 7705.75 674.5 7705.75 592.5 7725.75 592.5 7725.75 674.5 7745.75 674.5 7745.75 592.5 7765.75 592.5 7765.75 674.5 7785.76 674.5 7785.76 592.5 7806.76 592.5 7806.76 674.5 7826.76 674.5 7826.76 592.5 7846.76 592.5 7846.76 674.5 7866.76 674.5 7866.76 592.5 7886.76 592.5 7886.76 674.5 7907.76 674.5 7907.76 592.5 7927.76 592.5 7927.76 674.5 7947.76 674.5 7947.76 592.5 7967.76 592.5 7967.76 674.5 7987.76 674.5 7987.76 592.5 8008.76 592.5 8008.76 674.5 8028.76 674.5 8028.76 592.5 8048.76 592.5 8048.76 674.5 8068.76 674.5 8068.76 592.5 8088.77 592.5 8088.77 674.5 8108.77 674.5 8108.77 592.5 8129.77 592.5 8129.77 674.5 8149.77 674.5 8149.77 592.5 8169.77 592.5 8169.77 674.5 8189.77 674.5 8189.77 592.5 8209.77 592.5 8209.77 674.5 8230.77 674.5 8230.77 592.5 8250.77 592.5 8250.77 674.5 8270.5 674.5 8270.5 592.5" stroke="#E97132" stroke-width="3.4375" stroke-linecap="round" stroke-linejoin="round" stroke-miterlimit="10" fill="none"/></g><g><g clip-path="url(#clip2)"><text font-family="Cascadia Mono,Cascadia Mono_MSFontService,sans-serif" font-weight="400" font-size="46" transform="matrix(1 0 0 1 5731.52 190)">1  1  1  0  0  0  1  0</text></g></g><g><g clip-path="url(#clip3)"><text font-family="Cascadia Mono,Cascadia Mono_MSFontService,sans-serif" font-weight="400" font-size="46" transform="matrix(1 0 0 1 6379.42 190)">0  1  0  1  0  1  0  0  0  0  0  0  0  0  0  1</text></g></g></g></svg>

<?xml version="1.0" encoding="UTF-8" standalone="no"?>
<svg
   width="3231"
   height="647"
   xml:space="preserve"
   overflow="hidden"
   version="1.1"
   id="svg13"
   sodipodi:docname="decoded_signal.svg"
   inkscape:version="1.3.2 (091e20e, 2023-11-25, custom)"
   xmlns:inkscape="http://www.inkscape.org/namespaces/inkscape"
   xmlns:sodipodi="http://sodipodi.sourceforge.net/DTD/sodipodi-0.dtd"
   xmlns="http://www.w3.org/2000/svg"
   xmlns:svg="http://www.w3.org/2000/svg"><sodipodi:namedview
     id="namedview13"
     pagecolor="#ffffff"
     bordercolor="#000000"
     borderopacity="0.25"
     inkscape:showpageshadow="2"
     inkscape:pageopacity="0.0"
     inkscape:pagecheckerboard="0"
     inkscape:deskcolor="#d1d1d1"
     inkscape:zoom="0.8381306"
     inkscape:cx="2223.9971"
     inkscape:cy="347.79783"
     inkscape:window-width="1920"
     inkscape:window-height="991"
     inkscape:window-x="-9"
     inkscape:window-y="-9"
     inkscape:window-maximized="1"
     inkscape:current-layer="g7" /><defs
     id="defs4"><clipPath
       id="clip1"><rect
         x="5140"
         y="155"
         width="3134"
         height="550"
         id="rect2" /></clipPath><clipPath
       clipPathUnits="userSpaceOnUse"
       id="clipPath17"><g
         id="g18"
         transform="translate(5090,105)"><rect
           x="0"
           y="0"
           width="3231"
           height="647"
           id="rect17" /></g></clipPath></defs><g
     id="g5"
     transform="translate(-5090,-105)"
     clip-path="url(#clipPath17)"><path
       d="m 5181.17,155 v 547 m 40,-547 v 547 m 40,-547 v 547 m 41,-547 v 547 m 40.01,-547 v 547 m 41,-547 v 547 m 40,-547 v 547 m 40,-547 v 547 m 41,-547 v 547 m 40,-547 v 547 m 41,-547 v 547 m 40,-547 v 547 m 40.01,-547 v 547 m 41,-547 v 547 m 40,-547 v 547 m 40,-547 v 547 m 41,-547 v 547 m 40,-547 v 547 m 41,-547 v 547 m 40.01,-547 v 547 m 40,-547 v 547 m 41,-547 v 547 m 40,-547 v 547 m 41,-547 v 547 m 40,-547 v 547 m 40,-547 v 547 m 41,-547 v 547 m 40.01,-547 v 547 m 41,-547 v 547 m 40,-547 v 547 m 40,-547 v 547 m 41,-547 v 547 m 40,-547 v 547 m 41,-547 v 547 m 40,-547 v 547 m 40.01,-547 v 547 m 41,-547 v 547 m 40,-547 v 547 m 40,-547 v 547 m 41,-547 v 547 m 40,-547 v 547 m 41,-547 v 547 m 40.01,-547 v 547 m 40,-547 v 547 m 41,-547 v 547 m 40,-547 v 547 m 41,-547 v 547 m 40,-547 v 547 m 40,-547 v 547 m 41,-547 v 547 m 40.01,-547 v 547 m 41,-547 v 547 m 40,-547 v 547 m 40,-547 v 547 m 41,-547 v 547 m 40,-547 v 547 m 41,-547 v 547 m 40.01,-547 v 547 m 40,-547 v 547 m 41,-547 v 547 m 40,-547 v 547 m 40,-547 v 547 m 41,-547 v 547 m 40,-547 v 547 m 41,-547 v 547 m 40.01,-547 v 547 m 40,-547 v 547 m 41,-547 v 547 m 40,-547 v 547 m 41,-547 v 547 m 40,-547 v 547 m 40,-547 v 547 m 41.01,-547 v 547 m 40,-547 v 547 m 41,-547 v 547 m 40,-547 V 702 M 8251,155 v 547"
       stroke="#ffffff"
       stroke-width="40.1042"
       stroke-linejoin="round"
       stroke-miterlimit="10"
       fill="none"
       id="path5" /></g><g
     id="g6"
     transform="translate(-5090,-105)"
     clip-path="none"><path
       d="m 5140,155 v 547 m 81.17,-547 v 547 m 81,-547 v 547 m 81.01,-547 v 547 m 80,-547 v 547 m 81,-547 v 547 m 81,-547 v 547 m 81.01,-547 v 547 m 81,-547 v 547 m 80,-547 v 547 m 81.01,-547 v 547 m 81,-547 v 547 m 81,-547 v 547 m 80,-547 v 547 m 81.01,-547 v 547 m 81,-547 v 547 m 81,-547 v 547 m 81,-547 v 547 m 80.01,-547 v 547 m 81,-547 v 547 m 81,-547 v 547 m 81,-547 v 547 m 80.01,-547 v 547 m 81,-547 v 547 m 81,-547 v 547 m 81,-547 v 547 m 81.01,-547 v 547 m 80,-547 v 547 m 81,-547 v 547 m 81.01,-547 v 547 m 81,-547 v 547 m 81,-547 v 547 m 80,-547 v 547 m 81.01,-547 v 547 m 81,-547 v 547 m 81,-547 v 547 m 80,-547 v 547 m 81.01,-547 V 702 M 8210,155 v 547"
       stroke="#ffd1e4"
       stroke-width="40.1042"
       stroke-linejoin="round"
       stroke-miterlimit="10"
       fill="none"
       id="path6" /></g><g
     clip-path="none"
     id="g7"
     transform="translate(-5090,-105)"><path
       d="m 5120.5,209.5 v 328 h 585.19 v -328 h 61 v 328 h 20 v -328 h 61 v 328 h 20 v -328 h 60 v 328 h 21.01 v -328 h 20 v 328 h 60 v -328 h 21 v 328 h 60 v -328 h 20 v 328 h 61 v -328 h 60.01 v 328 h 21 v -328 h 20 v 328 h 60 v -328 h 21 v 328 h 60 v -328 h 61 v 328 h 20 v -328 h 20 v 328 h 61.01 v -328 h 60 v 328 h 21 v -328 h 20 v 328 h 60 v -328 h 61 v 328 h 20 v -328 h 20.01 v 328 h 61 v -328 h 20 v 328 h 61 v -328 h 20 v 328 h 61 v -328 h 20 v 328 h 60.01 v -328 h 20 v 328 h 61 v -328 h 20 v 328 h 61 v -328 h 20 v 328 h 61 v -328 h 20 v 328 h 60.01 v -328 h 21 v 328 h 60 v -328 h 61 v 328 h 20 v -328 h 20 v 328 h 586.02 v -328"
       stroke="#4e95d9"
       stroke-width="3.4375"
       stroke-linecap="round"
       stroke-linejoin="round"
       stroke-miterlimit="10"
       fill="none"
       id="path7"
       sodipodi:nodetypes="cccccccccccccccccccccccccccccccccccccccccccccccccccccccccccccccccccccccccccccccccccccccccccccccccccccccc" /></g><text
     style="font-weight:700;font-size:45px;font-family:'Courier New', 'Courier New_MSFontService', sans-serif;fill:#156082"
     x="641.52002"
     y="88"
     id="text26">1</text><text
     style="font-weight:700;font-size:45px;font-family:'Courier New', 'Courier New_MSFontService', sans-serif;fill:#156082"
     x="722.5332"
     y="88"
     id="text25">1</text><text
     style="font-weight:700;font-size:45px;font-family:'Courier New', 'Courier New_MSFontService', sans-serif;fill:#156082"
     x="803.54639"
     y="88"
     id="text24">1</text><text
     style="font-weight:700;font-size:45px;font-family:'Courier New', 'Courier New_MSFontService', sans-serif;fill:#156082"
     x="884.55957"
     y="88"
     id="text23">0</text><text
     style="font-weight:700;font-size:45px;font-family:'Courier New', 'Courier New_MSFontService', sans-serif;fill:#156082"
     x="965.57275"
     y="88"
     id="text22">0</text><text
     style="font-weight:700;font-size:45px;font-family:'Courier New', 'Courier New_MSFontService', sans-serif;fill:#156082"
     x="1046.5859"
     y="88"
     id="text21">0</text><text
     style="font-weight:700;font-size:45px;font-family:'Courier New', 'Courier New_MSFontService', sans-serif;fill:#156082"
     x="1127.5991"
     y="88"
     id="text20">1</text><text
     style="font-weight:700;font-size:45px;font-family:'Courier New', 'Courier New_MSFontService', sans-serif;fill:#156082"
     x="1208.6123"
     y="88"
     id="text19">0</text><text
     style="font-weight:700;font-size:45px;font-family:'Courier New', 'Courier New_MSFontService', sans-serif;fill:#156082"
     x="1288.3199"
     y="88"
     id="text42">0</text><text
     style="font-weight:700;font-size:45px;font-family:'Courier New', 'Courier New_MSFontService', sans-serif;fill:#156082"
     x="1369.3331"
     y="88"
     id="text41">1</text><text
     style="font-weight:700;font-size:45px;font-family:'Courier New', 'Courier New_MSFontService', sans-serif;fill:#156082"
     x="1450.3463"
     y="88"
     id="text40">0</text><text
     style="font-weight:700;font-size:45px;font-family:'Courier New', 'Courier New_MSFontService', sans-serif;fill:#156082"
     x="1531.3595"
     y="88"
     id="text39">1</text><text
     style="font-weight:700;font-size:45px;font-family:'Courier New', 'Courier New_MSFontService', sans-serif;fill:#156082"
     x="1612.3727"
     y="88"
     id="text38">0</text><text
     style="font-weight:700;font-size:45px;font-family:'Courier New', 'Courier New_MSFontService', sans-serif;fill:#156082"
     x="1693.3859"
     y="88"
     id="text37">1</text><text
     style="font-weight:700;font-size:45px;font-family:'Courier New', 'Courier New_MSFontService', sans-serif;fill:#156082"
     x="1774.399"
     y="88"
     id="text36">0</text><text
     style="font-weight:700;font-size:45px;font-family:'Courier New', 'Courier New_MSFontService', sans-serif;fill:#156082"
     x="1855.4122"
     y="88"
     id="text35">0</text><text
     style="font-weight:700;font-size:45px;font-family:'Courier New', 'Courier New_MSFontService', sans-serif;fill:#156082"
     x="1936.4254"
     y="88"
     id="text34">0</text><text
     style="font-weight:700;font-size:45px;font-family:'Courier New', 'Courier New_MSFontService', sans-serif;fill:#156082"
     x="2017.4386"
     y="88"
     id="text33">0</text><text
     style="font-weight:700;font-size:45px;font-family:'Courier New', 'Courier New_MSFontService', sans-serif;fill:#156082"
     x="2098.4518"
     y="88"
     id="text32">0</text><text
     style="font-weight:700;font-size:45px;font-family:'Courier New', 'Courier New_MSFontService', sans-serif;fill:#156082"
     x="2179.465"
     y="88"
     id="text31">0</text><text
     style="font-weight:700;font-size:45px;font-family:'Courier New', 'Courier New_MSFontService', sans-serif;fill:#156082"
     x="2260.4781"
     y="88"
     id="text30">0</text><text
     style="font-weight:700;font-size:45px;font-family:'Courier New', 'Courier New_MSFontService', sans-serif;fill:#156082"
     x="2341.4913"
     y="88"
     id="text29">0</text><text
     style="font-weight:700;font-size:45px;font-family:'Courier New', 'Courier New_MSFontService', sans-serif;fill:#156082"
     x="2422.5045"
     y="88"
     id="text28">0</text><text
     style="font-weight:700;font-size:45px;font-family:'Courier New', 'Courier New_MSFontService', sans-serif;fill:#156082"
     x="2503.5177"
     y="88"
     id="text27">1</text><g
     id="g8"
     transform="translate(-5110,-105)"
     clip-path="none"
     style="font-variation-settings:normal;vector-effect:none;fill:none;fill-opacity:1;stroke:#e97132;stroke-width:3.4375;stroke-linecap:round;stroke-linejoin:round;stroke-miterlimit:10;stroke-dasharray:none;stroke-dashoffset:0;stroke-opacity:1;-inkscape-stroke:none;stop-color:#000000"><path
       d="m 5140.5,592.5 v 82 h 20.17 v -82 h 20 v 82 h 20 v -82 h 21 v 82 h 20 v -82 h 20 v 82 h 20 v -82 h 20 v 82 h 21 v -82 h 20.01 v 82 h 20 v -82 h 20 v 82 h 20 v -82 h 20 v 82 h 21 v -82 h 20 v 82 h 20 v -82 h 20 v 82 h 20 v -82 h 21 v 82 h 20 v -82 h 20 v 82 h 20 v -82 h 20 v 82 h 21.01 v -82 h 20 v 82 h 20 v -82 h 20 v 82 h 20 v -82 h 21 v 82 h 20 v -82 h 20 v 82 h 20 v -82 h 20 v 82 h 21 v -82 h 20 v 82 h 20 v -82 h 20 v 82 h 20 v -82 h 21.01 v 82 h 20 v -82 h 20 v 82 h 20 v -82 h 20 v 82 h 21 v -82 h 20 v 82 h 20 v -82 h 20 v 82 h 20 v -82 h 21 v 82 h 20 v -82 h 20 v 82 h 20 v -82 h 20 v 82 h 20.01 v -82 h 21 v 82 h 20 v -82 h 20 v 82 h 20 v -82 h 20 v 82 h 21 v -82 h 20 v 82 h 20 v -82 h 20 v 82 h 20 v -82 h 21 v 82 h 20 v -82 h 20 v 82 h 20 v -82 h 20.01 v 82 h 21 v -82 h 20 v 82 h 20 v -82 h 20 v 82 h 20 v -82 h 21 v 82 h 20 v -82 h 20 v 82 h 20 v -82 h 20 v 82 h 21 v -82 h 20 v 82 h 20 v -82 h 20 v 82 h 20.01 v -82 h 21 v 82 h 20 v -82 h 20 v 82 h 20 v -82 h 20 v 82 h 21 v -82 h 20 v 82 h 20 v -82 h 20 v 82 h 20 v -82 h 21 v 82 h 20 v -82 h 20 v 82 h 20 v -82 h 20.01 v 82 h 20 v -82 h 21 v 82 h 20 v -82 h 20 v 82 h 20 v -82 h 20 v 82 h 21 v -82 h 20 v 82 h 20 v -82 h 20 v 82 h 20 v -82 h 21 v 82 h 20 v -82 h 20 v 82 h 20.01 v -82 h 20 v 82 h 21 v -82 h 20 v 82 h 20 v -82 h 20 v 82 h 20 v -82 h 21 v 82 h 20 v -82 h 20 v 82 h 20 v -82 h 20 v 82 h 21 v -82 h 20 v 82 h 20 v -82 h 20 v 82 h 20.01 v -82 h 21 v 82 h 20 v -82 h 20 v 82 h 20 v -82 h 20 v 82 h 21 v -82 h 20 v 82 h 20 v -82 h 20 v 82 h 20 v -82 h 21 v 82 h 20 v -82 h 20 v 82 h 20 v -82 h 20.01 v 82 h 20 v -82 h 21 v 82 h 20 v -82 h 20 v 82 h 20 v -82 h 20 v 82 h 21 v -82 h 20 v 82 h 19.73 v -82"
       stroke="#e97132"
       stroke-width="3.4375"
       stroke-linecap="round"
       stroke-linejoin="round"
       stroke-miterlimit="10"
       fill="none"
       id="path8"
       style="font-variation-settings:normal;vector-effect:none;fill:none;fill-opacity:1;stroke:#e97132;stroke-width:3.4375;stroke-linecap:round;stroke-linejoin:round;stroke-miterlimit:10;stroke-dasharray:none;stroke-dashoffset:0;stroke-opacity:1;-inkscape-stroke:none;stop-color:#000000;stop-opacity:1" /></g></svg>
